X: 2160
T: Auld Ireland
R: jig
M: 6/8
K: Dmajor
|:f2 e dcB|A2 F A2 B|G2 E G2 B|A2 F A2 g|
f2 e dcB|A2 F A2 B|G2 E cBc|1 d3 d2 g:|2 d3 dAG||
|:F2 A d2 f|a2 a agf|g2 g gfe|fgf fed|
F2 A d2 f|a2 a agf|g2 g gfe|1 d3 dAG:|2 d3 d3||

